svg/fluentui-system-icons/ic_fluent_mic_off_16_filled.svg

<svg width="16" height="16" viewBox="0 0 16 16" fill="none" xmlns="http://www.w3.org/2000/svg">
<path d="M10.8089 11.516L14.1464 14.8536C14.3417 15.0488 14.6583 15.0488 14.8536 14.8536C15.0488 14.6583 15.0488 14.3417 14.8536 14.1464L1.85355 1.14645C1.65829 0.951184 1.34171 0.951184 1.14645 1.14645C0.951184 1.34171 0.951184 1.65829 1.14645 1.85355L5.5 6.20711V8.00005C5.5 9.38076 6.61929 10.5 8 10.5C8.50955 10.5 8.9835 10.3476 9.37872 10.0858L10.0961 10.8032C9.51182 11.2408 8.78618 11.5 8 11.5C6.067 11.5 4.5 9.93304 4.5 8.00005C4.5 7.7239 4.27614 7.50005 4 7.50005C3.72386 7.50005 3.5 7.7239 3.5 8.00005C3.5 10.3163 5.25003 12.2239 7.5 12.4726V13.5C7.5 13.7762 7.72386 14 8 14C8.27614 14 8.5 13.7762 8.5 13.5V12.4726C9.36794 12.3766 10.1615 12.0338 10.8089 11.516ZM12.0614 9.94016L11.2975 9.17619C11.4286 8.8086 11.5 8.41266 11.5 8.00005C11.5 7.7239 11.7239 7.50005 12 7.50005C12.2761 7.50005 12.5 7.7239 12.5 8.00005C12.5 8.69476 12.3426 9.35271 12.0614 9.94016ZM10.4752 8.35386L5.68233 3.56104C6.05357 2.64564 6.95139 2.00005 8 2.00005C9.38071 2.00005 10.5 3.11933 10.5 4.50005V8.00005C10.5 8.12015 10.4915 8.23828 10.4752 8.35386Z" fill="#212121"/>
</svg>

<svg xmlns="http://www.w3.org/2000/svg" width="16" height="16"><path d="m10.809 11.516 3.337 3.338a.5.5 0 0 0 .708-.708l-13-13a.5.5 0 1 0-.708.708L5.5 6.207V8a2.5 2.5 0 0 0 3.879 2.086l.717.717A3.5 3.5 0 0 1 4.5 8a.5.5 0 1 0-1 0 4.5 4.5 0 0 0 4 4.473V13.5a.5.5 0 1 0 1 0v-1.027a4.48 4.48 0 0 0 2.309-.957ZM12.06 9.94l-.764-.764c.132-.367.203-.763.203-1.176a.5.5 0 0 1 1 0c0 .695-.157 1.353-.439 1.94Zm-1.586-1.586L5.682 3.56a2.5 2.5 0 0 1 4.818.94V8c0 .12-.008.238-.025.354Z"/></svg>
